X: 210
T:Letare nova Syon
N: Derived from Jos1712-Letare_nova_Syon.krn
C: Josquin des Prez
%%abc-version 2.0
%%abcx-abcm2ps-target-version 5.9.1 (29 Sep 2008)
%%abc-creator hum2abc beta
%%abcx-conversion-date 2019/02/12 16:15:48
%%abc-edited-by Jesse Rodin
%%abc-edited-by Chris Gage 06-05-2012
%%abcx-initial-encoding-date 2012/06/07/
%%humdrum-veritas 1468596862
%%humdrum-veritas-data 1891298610
%%linebreak <none>
%%barnumbers 0
L: 1/4
M: 2/1
Q: 1/2=120
%%staves [1 2 3 4]
V: 1 clef=treble
V: 2 clef=treble
V: 3 clef=treble-8
V: 4 clef=bass
K: C
[V:1] z4G4 | 
[V:2] z8 | 
[V:3] G4c4- | 
[V:4] z8 | 
[V:1] c8 | 
[V:2] z4C4 | 
[V:3] c4A4 | 
[V:4] C,4F,4- | 
[V:1] A4A4 | 
[V:2] F8 | 
[V:3] A4d4- | 
[V:4] F,4D,4 | 
[V:1] d6c2 | 
[V:2] D4D4 | 
[V:3] d2c2B2A2 | 
[V:4] D,4G,4- | 
[V:1] B2A2G4 | 
[V:2] G6F2 | 
[V:3] G4z4 | 
[V:4] G,2F,2E,2D,2 | 
[V:1] z4G4 | 
[V:2] E6D2 | 
[V:3] G4c4- | 
[V:4] C,4z4 | 
[V:1] c8 | 
[V:2] C4z2C2 | 
[V:3] c4A4 | 
[V:4] C,4F,4- | 
[V:1] A8 | 
[V:2] F8 | 
[V:3] z2A2d4- | 
[V:4] F,4D,4 | 
[V:1] A4A4 | 
[V:2] E8 | 
[V:3] d2cBc3d | 
[V:4] A,8 | 
[V:1] B6A2- | 
[V:2] G6F2 | 
[V:3] d6d2 | 
[V:4] G,6D,2 | 
[V:1] AGG4^F2 | 
[V:2] E4D4 | 
[V:3] B2c2A4 | 
[V:4] E,2C,2D,4 | 
[V:1] G8 | 
[V:2] z2D2D2D2 | 
[V:3] G8 | 
[V:4] G,3A,B,2G,2- | 
[V:1] z8 | 
[V:2] E4G4- | 
[V:3] z2G2G2G2 | 
[V:4] G,F,E,D,E,4 | 
[V:1] z4z2G2 | 
[V:2] G2F2E4 | 
[V:3] A4c4- | 
[V:4] D,4z4 | 
[V:1] G2G2A2c2- | 
[V:2] D3EF2E2- | 
[V:3] c2B2A4 | 
[V:4] z8 | 
[V:1] c2B2A4 | 
[V:2] EDG4^F2 | 
[V:3] G4z2d2 | 
[V:4] z8 | 
[V:1] G6z2 | 
[V:2] G4z4 | 
[V:3] e2d2g4- | 
[V:4] z2G,2G,2G,2 | 
[V:1] z4z2G2 | 
[V:2] C4G4 | 
[V:3] g2f2e2d2 | 
[V:4] A,4C4- | 
[V:1] G2G2A2c2- | 
[V:2] E2G4F2 | 
[V:3] c4z2cd | 
[V:4] C2B,2A,4 | 
[V:1] c2B2A4 | 
[V:2] G2G,2D4 | 
[V:3] efg4^f2 | 
[V:4] G,4z2D,2 | 
[V:1] G4G4 | 
[V:2] G,3A,B,CD2- | 
[V:3] g4z2G2 | 
[V:4] E,2C,2G,3F, | 
[V:1] G2G4F2 | 
[V:2] D2C2D4 | 
[V:3] G2G2A4 | 
[V:4] E,4D,4 | 
[V:1] G2E2D4 | 
[V:2] z2G2G2G2- | 
[V:3] c6B2 | 
[V:4] z8 | 
[V:1] z2A2B2G2 | 
[V:2] G2F2G2E2 | 
[V:3] A4G4 | 
[V:4] z4z2G,2 | 
[V:1] B4A4 | 
[V:2] D4z4 | 
[V:3] z2d2d2d2- | 
[V:4] G,2G,4F,2 | 
[V:1] z2G2G2G2- | 
[V:2] z4z2D2 | 
[V:3] d2c2d2B2 | 
[V:4] G,2E,2D,4- | 
[V:1] G2F2G2E2 | 
[V:2] D2D4C2 | 
[V:3] A2A2B2A2 | 
[V:4] D,4z4 | 
[V:1] D8- | 
[V:2] D2B,2A,2A,2 | 
[V:3] B2G4^F2 | 
[V:4] z8 | 
[V:1] D4D3E | 
[V:2] B,2G,3A,B,C | 
[V:3] G3ABcd2- | 
[V:4] z2G,2G,2G,2- | 
[V:1] FGA3GG2- | 
[V:2] DEF2D2C2 | 
[V:3] dcA2B2G2 | 
[V:4] G,2F,2G,2E,2 | 
[V:1] G2^F2G4- | 
[V:2] D2D2B,4 | 
[V:3] A4G4- | 
[V:4] D,4z4 | 
[V:1] G8- | 
[V:2] z4D4- | 
[V:3] G8- | 
[V:4] D6C2 | 
[V:1] G4z4 | 
[V:2] D2C2B,4 | 
[V:3] G8- | 
[V:4] B,4D4- | 
[V:1] z8 | 
[V:2] D6C2 | 
[V:3] G4z4 | 
[V:4] D2C2B,2A,2 | 
[V:1] z4d4- | 
[V:2] B,2A,3G,G2- | 
[V:3] z8 | 
[V:4] G,2F,2G,3_B, | 
[V:1] d2c2B4 | 
[V:2] GE^F2G4 | 
[V:3] z4g4- | 
[V:4] A,4G,4 | 
[V:1] d6c2 | 
[V:2] z8 | 
[V:3] g2f2e4 | 
[V:4] z8 | 
[V:1] B2AGB2AB | 
[V:2] z8 | 
[V:3] g6f2 | 
[V:4] z8 | 
[V:1] cde3dd2- | 
[V:2] z8 | 
[V:3] e2c2f4 | 
[V:4] z2A,4F,2 | 
[V:1] d2^c2d4- | 
[V:2] z2A4F2 | 
[V:3] e4d4 | 
[V:4] G,2A,2D,4 | 
[V:1] d4z2d2 | 
[V:2] G2A2D2G2- | 
[V:3] z2d4B2 | 
[V:4] z8 | 
[V:1] c2A2B2G2 | 
[V:2] G2F2G2B2- | 
[V:3] c2d2G4- | 
[V:4] z4z2D2- | 
[V:1] B4A4 | 
[V:2] BAG4^F2 | 
[V:3] G4z2d2- | 
[V:4] D2B,2C2D2 | 
[V:1] G4z2d2- | 
[V:2] GABGA4 | 
[V:3] d2B2c2d2 | 
[V:4] G,4z4 | 
[V:1] d2B2c2d2- | 
[V:2] G4z4 | 
[V:3] G2e4d2 | 
[V:4] z8 | 
[V:1] dcc4B2 | 
[V:2] z2E2G4- | 
[V:3] B2c2d4 | 
[V:4] z4G,4 | 
[V:1] c4z4 | 
[V:2] G2F2E2D2 | 
[V:3] c4z4 | 
[V:4] C6B,2 | 
[V:1] z4c4 | 
[V:2] C2E3DC2- | 
[V:3] z8 | 
[V:4] A,3G,F,2E,2 | 
[V:1] f6e2 | 
[V:2] C2B,2C4 | 
[V:3] d4g4- | 
[V:4] D,4C,4 | 
[V:1] d2d2c2d2- | 
[V:2] z8 | 
[V:3] g2f2e2d2 | 
[V:4] z8 | 
[V:1] dcc4B2 | 
[V:2] z2E2G4- | 
[V:3] B2c2d4 | 
[V:4] z4G,4 | 
[V:1] c4z4 | 
[V:2] G2F2E2D2 | 
[V:3] c4z4 | 
[V:4] C6B,2 | 
[V:1] z4c4 | 
[V:2] C2E3DC2- | 
[V:3] z8 | 
[V:4] A,3G,F,2E,2 | 
[V:1] f6e2 | 
[V:2] C2B,2C4 | 
[V:3] d4g4- | 
[V:4] D,4C,4 | 
[V:1] d2d2c2d2- | 
[V:2] z2D2G2G2 | 
[V:3] g2f2e2d2 | 
[V:4] z4z2G,2 | 
[V:1] dcc4B2 | 
[V:2] A4G4 | 
[V:3] e2f2d4 | 
[V:4] C2F,2G,4 | 
[V:1] [M:3/1]c8z4 | 
[V:2] [M:3/1]G8z4 | 
[V:3] [M:3/1]c8z4 | 
[V:4] [M:3/1]C,8z4 | 
[V:1] B4B4B4 | 
[V:2] G4G4G4 | 
[V:3] d4d4d4 | 
[V:4] G,4G,4G,4 | 
[V:1] G8F4- | 
[V:2] D8C4- | 
[V:3] G8c4- | 
[V:4] _B,8A,4- | 
[V:1] F4G6G2 | 
[V:2] C4D6D2 | 
[V:3] c4B6B2 | 
[V:4] A,4G,6G,2 | 
[V:1] A4G4G4 | 
[V:2] D4D4C4 | 
[V:3] A4B4G4 | 
[V:4] F,4G,4E,4 | 
[V:1] F8z4 | 
[V:2] D8z4 | 
[V:3] A8z4 | 
[V:4] D,8z4 | 
[V:1] G4G4G4 | 
[V:2] D4D4D4 | 
[V:3] B4B4B4 | 
[V:4] G,4G,4G,4 | 
[V:1] G8F4- | 
[V:2] D8C4- | 
[V:3] G8c4- | 
[V:4] _B,8A,4- | 
[V:1] F4G6G2 | 
[V:2] C4D6D2 | 
[V:3] c4B6B2 | 
[V:4] A,4G,6G,2 | 
[V:1] A4G4G4 | 
[V:2] D4D4C4 | 
[V:3] A4B4G4 | 
[V:4] F,4G,4E,4 | 
[V:1] [M:2/1]F4z2A2- | 
[V:2] [M:2/1]D6A,2 | 
[V:3] [M:2/1]A8- | 
[V:4] [M:2/1]D,3E,F,G,F,2- | 
[V:1] A2d4c2 | 
[V:2] F4E4 | 
[V:3] A8 | 
[V:4] F,2E,D,A,4 | 
[V:1] f3ed2c2 | 
[V:2] z2D4A2- | 
[V:3] z8 | 
[V:4] D,4z4 | 
[V:1] B4A4- | 
[V:2] A2G2F2E2 | 
[V:3] z4z2A2- | 
[V:4] z8 | 
[V:1] A8- | 
[V:2] F3DE4 | 
[V:3] A2d4c2 | 
[V:4] z8 | 
[V:1] A4z4 | 
[V:2] D4z4 | 
[V:3] f3ed2c2 | 
[V:4] z2D,4A,2- | 
[V:1] z4z2E2 | 
[V:2] z8 | 
[V:3] B4A4 | 
[V:4] A,2G,2C3B, | 
[V:1] F2G3FED | 
[V:2] z2G,4D2- | 
[V:3] z8 | 
[V:4] A,2G,2_B,4 | 
[V:1] E4D4 | 
[V:2] D2C2F4 | 
[V:3] z2A4d2- | 
[V:4] A,4D,4 | 
[V:1] A8 | 
[V:2] E4z2D2 | 
[V:3] d2c2f3e | 
[V:4] z8 | 
[V:1] z2A4d2- | 
[V:2] F2E2F4 | 
[V:3] d2c2d4 | 
[V:4] z8 | 
[V:1] d2c2f3e | 
[V:2] E4DEFG | 
[V:3] A4z2d2 | 
[V:4] z8 | 
[V:1] d2c2_B2A2- | 
[V:2] A3GF2E2- | 
[V:3] f3ed2c2 | 
[V:4] z8 | 
[V:1] A2G2A4 | 
[V:2] E2D2E2E2 | 
[V:3] _B4A2c2 | 
[V:4] z4z2A,2 | 
[V:1] z8 | 
[V:2] G3FE2D2 | 
[V:3] d3c_B2A2 | 
[V:4] _B,3A,G,2F,2 | 
[V:1] z2e2f3e | 
[V:2] C2B,CDEFG | 
[V:3] G4A2d2 | 
[V:4] E,4D,4 | 
[V:1] d2c2_B2A2 | 
[V:2] A3GF2E2- | 
[V:3] f3ed2c2 | 
[V:4] z8 | 
[V:1] A2G2A2F2- | 
[V:2] E2D2E2C2 | 
[V:3] _B4A4 | 
[V:4] z4z2A,2 | 
[V:1] F2G4A2- | 
[V:2] D6D2 | 
[V:3] z2G2_B2A2- | 
[V:4] _B,3A,G,2F,2 | 
[V:1] AGG4^F2 | 
[V:2] E2C2D4 | 
[V:3] A2G2A4 | 
[V:4] E,4D,4 | 
[V:1] G8- | 
[V:2] B,4z2G2 | 
[V:3] G8 | 
[V:4] z2G,2_B,3A, | 
[V:1] G4z2_B2 | 
[V:2] _B3AG2F2 | 
[V:3] z2d2_e4- | 
[V:4] G,2F,2_E,2D,2 | 
[V:1] c3_BA2G2 | 
[V:2] _E8 | 
[V:3] e2d2c2_B2 | 
[V:4] C,8 | 
[V:1] F2G4^F2 | 
[V:2] D8- | 
[V:3] A3GA4 | 
[V:4] D,8 | 
[V:1] G8 ||  
[V:2] D8 ||  
[V:3] G8 ||  
[V:4] G,8 ||  
[V:1]  [K:C] [M:2/1]d4B2c2 | 
[V:2]  [K:C] [M:2/1]z8 | 
[V:3]  [K:C] [M:2/1]z8 | 
[V:4]  [K:C] [M:2/1]z8 | 
[V:1] d2e2d4 | 
[V:2] z4G4 | 
[V:3] z8 | 
[V:4] z8 | 
[V:1] z2d2B2c2 | 
[V:2] E2F2G2A2 | 
[V:3] z8 | 
[V:4] z8 | 
[V:1] d2e2d4- | 
[V:2] G4F4 | 
[V:3] z4d4 | 
[V:4] z8 | 
[V:1] d2cBA2G2 | 
[V:2] D2E2F2G2 | 
[V:3] B2c2d2e2 | 
[V:4] z8 | 
[V:1] A4z2B2 | 
[V:2] F4G4- | 
[V:3] d8 | 
[V:4] z4G,4 | 
[V:1] B2A2G2F2 | 
[V:2] G2FED2C2 | 
[V:3] z2d2B2c2 | 
[V:4] E,2F,2G,2A,2 | 
[V:1] G4A4 | 
[V:2] B,G,G4^F2 | 
[V:3] d2e2d4- | 
[V:4] G,4z4 | 
[V:1] G2B2B2A2 | 
[V:2] G6FE | 
[V:3] d4z2d2 | 
[V:4] G,4E,2F,2 | 
[V:1] G2F2G4 | 
[V:2] D2C2B,2G,2- | 
[V:3] B2c2d2e2 | 
[V:4] G,2A,2G,4- | 
[V:1] B8 | 
[V:2] G,A,B,G,D4- | 
[V:3] d4g4- | 
[V:4] G,8 | 
[V:1] A8- | 
[V:2] D4D4 | 
[V:3] g2f2f4- | 
[V:4] D,4D,4- | 
[V:1] A8- | 
[V:2] z2D2D2C2 | 
[V:3] f2ede4 | 
[V:4] D,4z4 | 
[V:1] A8- | 
[V:2] D2D2A,4 | 
[V:3] z2d2d2c2 | 
[V:4] z8 | 
[V:1] A8 | 
[V:2] F4E2A2 | 
[V:3] d2d2A2e2 | 
[V:4] z2D2D2C2 | 
[V:1] z2d2d2c2 | 
[V:2] A2F2A4 | 
[V:3] f3de2e2 | 
[V:4] D2D2A,4 | 
[V:1] d2d2A4 | 
[V:2] z2G2G2F2 | 
[V:3] d2G2d4 | 
[V:4] z8 | 
[V:1] z2B2B2A2- | 
[V:2] G2G2D4 | 
[V:3] c2B2G2A2 | 
[V:4] z2G,2G,2F,2 | 
[V:1] AGG4^F2 | 
[V:2] z2B,2D3D | 
[V:3] B3A/G/A2A2 | 
[V:4] G,2G,2D,4 | 
[V:1] G4z2B2 | 
[V:2] D2E2B,2D2- | 
[V:3] G8 | 
[V:4] z8 | 
[V:1] d3dd2e2 | 
[V:2] DG,G,4G2 | 
[V:3] z8 | 
[V:4] z8 | 
[V:1] c2d2B2d2- | 
[V:2] A2B2G2B2- | 
[V:3] z4z2B2 | 
[V:4] z8 | 
[V:1] d2cBA2G2 | 
[V:2] B2AGF2G2- | 
[V:3] d3dd2e2 | 
[V:4] z8 | 
[V:1] A4G4- | 
[V:2] G2^F2G3=F | 
[V:3] c2d2B2c2- | 
[V:4] z4z2E,2 | 
[V:1] G4z4 | 
[V:2] E2D2E4 | 
[V:3] c2BAB2c2 | 
[V:4] G,3G,G,2A,2 | 
[V:1] z8 | 
[V:2] D4z4 | 
[V:3] A2B2G3A | 
[V:4] F,2G,2E,2G,2- | 
[V:1] z8 | 
[V:2] z4G,4 | 
[V:3] Bcd4c2 | 
[V:4] G,F,E,D,E,4 | 
[V:1] z2D2G4- | 
[V:2] D6B,2 | 
[V:3] B2A2B2G2 | 
[V:4] D,4z4 | 
[V:1] G2^F2G4 | 
[V:2] C2D2G,4 | 
[V:3] A4z2G2- | 
[V:4] z2D,2E,3F, | 
[V:1] B4A4 | 
[V:2] z4D4 | 
[V:3] G2d4A2 | 
[V:4] G,6F,2 | 
[V:1] z4z2A2 | 
[V:2] G6F2 | 
[V:3] B2c2d4 | 
[V:4] E,4D,4 | 
[V:1] B2c2d3c | 
[V:2] G2A2D4 | 
[V:3] z2A2B2A2 | 
[V:4] z4z2D,2 | 
[V:1] BAB4AG | 
[V:2] z2G,2G,A,B,C | 
[V:3] G3ABcd2 | 
[V:4] E,3F,G,4- | 
[V:1] B2A2G4 | 
[V:2] D2D2E2C2 | 
[V:3] G2A2B2AG | 
[V:4] G,2F,2E,4 | 
[V:1] F4z2A2- | 
[V:2] D4z2F2- | 
[V:3] _B2A2z2d2- | 
[V:4] D,4z2D,2- | 
[V:1] A2A2A2B2 | 
[V:2] F2F2F2F2 | 
[V:3] d2d2d2d2 | 
[V:4] D,2D,2D,2D,2 | 
[V:1] c3cB2A2- | 
[V:2] G4G2E2 | 
[V:3] e4d2c2- | 
[V:4] C,D,E,F,G,2A,2 | 
[V:1] AGG4^F2 | 
[V:2] F2E3DC2 | 
[V:3] c2B2c4 | 
[V:4] F,2G,2A,4 | 
[V:1] [M:3/1]G8z4 | 
[V:2] [M:3/1]B,8z4 | 
[V:3] [M:3/1]d8z4 | 
[V:4] [M:3/1]G,8z4 | 
[V:1] B6B2B4 | 
[V:2] G6G2G4 | 
[V:3] d6d2d4 | 
[V:4] G,6G,2G,4 | 
[V:1] B4e8 | 
[V:2] G4G8 | 
[V:3] d4c8 | 
[V:4] G,4C,8 | 
[V:1] d4c8 | 
[V:2] G4E2D2E2F2 | 
[V:3] B4c8 | 
[V:4] G,4A,8 | 
[V:1] B4d4d4 | 
[V:2] G4G4F4 | 
[V:3] d8z4 | 
[V:4] G,8z4 | 
[V:1] B4c4d4 | 
[V:2] G4E4F4 | 
[V:3] z12 | 
[V:4] z12 | 
[V:1] B8z4 | 
[V:2] G8z4 | 
[V:3] z4d4d4 | 
[V:4] z4G,4F,4 | 
[V:1] z12 | 
[V:2] z12 | 
[V:3] B4c4d4 | 
[V:4] G,4E,4F,4 | 
[V:1] z4A6A2 | 
[V:2] z4F6F2 | 
[V:3] B4d6d2 | 
[V:4] G,4D,6D,2 | 
[V:1] A8A4 | 
[V:2] F8F4 | 
[V:3] d8c4 | 
[V:4] D,8F,4 | 
[V:1] G4A6G2 | 
[V:2] D8E4- | 
[V:3] B4A4B4 | 
[V:4] G,4F,4E,4 | 
[V:1] G8^F4 | 
[V:2] E4D8 | 
[V:3] c4A8 | 
[V:4] C,4D,8 | 
[V:1] [M:2/1]G8 | 
[V:2] [M:2/1]B,6G,2 | 
[V:3] [M:2/1]G4z2B2- | 
[V:4] [M:2/1]G,8 | 
[V:1] z8 | 
[V:2] G,4z4 | 
[V:3] B2c2d2d2 | 
[V:4] z2E,2F,2G,2- | 
[V:1] z8 | 
[V:2] z8 | 
[V:3] d3dd2e2- | 
[V:4] G,2G,2F,2G,2 | 
[V:1] z8 | 
[V:2] z2D2E2F2 | 
[V:3] edd4c2 | 
[V:4] _B,4A,4 | 
[V:1] z2B4c2 | 
[V:2] G6FE | 
[V:3] d4z4 | 
[V:4] G,4z4 | 
[V:1] d2d2d3d | 
[V:2] F2G2D2G2 | 
[V:3] z8 | 
[V:4] z8 | 
[V:1] d2e3dd2- | 
[V:2] F2G3FD2 | 
[V:3] z8 | 
[V:4] z2G,2G,2F,2 | 
[V:1] d2^c2d4 | 
[V:2] E4D4- | 
[V:3] z4z2G2 | 
[V:4] G,2A,2_B,4- | 
[V:1] z8 | 
[V:2] D8- | 
[V:3] G2F2G2A2 | 
[V:4] B,2A,2_B,2F,2 | 
[V:1] z2G2G2G2 | 
[V:2] D8- | 
[V:3] _B6A2 | 
[V:4] G,4D,4 | 
[V:1] G2A2_B4- | 
[V:2] D4z2G2 | 
[V:3] _B2F2GA_Bc | 
[V:4] z8 | 
[V:1] B2A2_B2F2 | 
[V:2] G2F2G2A2 | 
[V:3] d4z4 | 
[V:4] z8 | 
[V:1] G2d4c2 | 
[V:2] _B6A2 | 
[V:3] z8 | 
[V:4] z8 | 
[V:1] d3cA_BcA | 
[V:2] _B2FEFGA2- | 
[V:3] z2d2d2c2 | 
[V:4] z8 | 
[V:1] _B4A4 | 
[V:2] A2G2A4 | 
[V:3] d2e2e2d2- | 
[V:4] z4z2D,2 | 
[V:1] z2A2A2A2 | 
[V:2] z4z2E2 | 
[V:3] dAc2B4 | 
[V:4] D,2C,2D,2E,2 | 
[V:1] A2A2c4- | 
[V:2] C2D2E2F2 | 
[V:3] A8 | 
[V:4] F,4z4 | 
[V:1] c2B2A2G2- | 
[V:2] E3EF2E2- | 
[V:3] z8 | 
[V:4] z4z2G,2 | 
[V:1] GFD2E4 | 
[V:2] EDD4^C2 | 
[V:3] z8 | 
[V:4] G,2F,2G,2A,2 | 
[V:1] D2_B2B2c2 | 
[V:2] D2G2G2F2 | 
[V:3] z2d2d2c2 | 
[V:4] _B,2G,4A,2 | 
[V:1] _B2A2d4- | 
[V:2] G2A2_B4- | 
[V:3] d2f2d4 | 
[V:4] G,2F,2G,2_B,2- | 
[V:1] d2c2_B2A2- | 
[V:2] B2A2G2F2- | 
[V:3] f3ed4 | 
[V:4] B,A,F,2G,2D,2 | 
[V:1] AGG4^F2 | 
[V:2] FED3CD2 | 
[V:3] c2_B2A4 | 
[V:4] F,2G,2D,4 | 
[V:1] G8- | 
[V:2] _B,2G,2B,3C | 
[V:3] G8- | 
[V:4] G,8- | 
[V:1] G8 |]  
[V:2] D8 |]  
[V:3] G8 |]  
[V:4] G,8 |]  



